X:1
T:Come, thou celestial Spirit, come
T:Come, thou celestial Spirit, come - Kingsgate (Thomas Clark)
C:Thomas Clark
Z:Text: Philip Doddridge
%%score [ 1 2 3 4 ]
L:1/8
M:4/4
K:Bb
V:1 treble nm="SOPRANO" snm="S."
V:2 treble nm="ALTO" snm="A."
V:3 treble-8 transpose=-12 nm="TENOR" snm="T."
V:4 bass nm="BASS" snm="B."
V:1
 B2 FF d2 B2 | (ce)(dc) d2 z d | (cA)(BG) (F/G/A/B/ c)d | (cA)(BG) (A>B c)d | %4
w: Of end- less joy th’un-|boun- * ded _ store, Why|is _ its _ lus- * * * * tre|known _ no _ more, _ _ why|
w: Come, thou ce- les- tial|Spi- * rit, _ come, And|call _ my _ ro- * * * * ving|pas- * sions _ home, _ _ and|
w: My God, that he- ri-|tage _ is _ thine: How|rich, _ how _ glo- * * * * rious,|how _ di- * vine, _ _ how|
 (dc)(cB) (A/G/F/G/ A)B | A2 G2 !fermata!F3 |: F | B2 F2 G2 d2 | c2 B2 A2 z!p! F | %9
w: is _ its _ lus- * * * * tre|known no more?|A-|way, ye mists of|en- vious night, That|
w: call _ my _ ro- * * * * ving|pas- sions home;|To|mine en- ligh- ten’d|eyes dis- play The|
w: rich, _ how _ glo- * * * * rious,|how di- vine!|How|far a- bove all|mor- tal things, The|
 (B/c/d/e/ f)e d3 c | B2 c2 d2 z!f! f | B2 d2 G2 (ec) | B2 A2 !fermata!B3 :| %13
w: veil _ _ _ _ sal- va- tion|from my sight, that|veil sal- va- tion _|from my sight!|
w: he- * * * * ri- tage of|heav’n- ly day, the|he- ri- tage of _|heav’n- ly day.|
w: lit- * * * * tle pride of|courts and kings, the|lit- tle pride of _|courts and kings.|
V:2
 F2 DC (DF) F2 | G2 F2 F2 z F | F2 C2 (C F2) F | F2 =E2 F3 F | F2 =E2 F3 G | F2 =E2 !fermata!F3 |: %6
w: Of end- less joy _ th’un-|boun- ded store, Why|is its lus- * tre|known no more, why|is its lus- tre|known no more?|
w: Come, thou ce- les- * tial|Spi- rit, come, And|call my ro- * ving|pas- sions home, and|call my ro- ving|pas- sions home;|
w: My God, that he- * ri-|tage is thine: How|rich, how glo- * rious,|how di- vine, how|rich, how glo- rious,|how di- vine!|
 D | F2 F2 E2 F2 | F2 F2 F2 z2 | z8 | z4 z2 z"^["!f!"^]" F | F2 F2 G2 G2 | F2 E2 !fermata!D3 :| %13
w: A-|way, ye mists of|en- vious night,||That|veil sal- va- tion|from my sight!|
w: To|mine en- ligh- ten’d|eyes dis- play||The|he- ri- tage of|heav’n- ly day.|
w: How|far a- bove all|mor- tal things,||The|lit- tle pride of|courts and kings.|
V:3
 d2 BA B2 B2 | B3 A B2 z B | (Ac)(GB) (A/B/c/B/ A)B | (Ac) c2 (c>B A)B | (BA) G2 (F/G/A/B/ c)d | %5
w: Of end- less joy th’un-|boun- ded store, Why|is _ its _ lus- * * * * tre|known _ no more, _ _ why|is _ its lus- * * * * tre|
w: Come, thou ce- les- tial|Spi- rit, come, And|call _ my _ ro- * * * * ving|pas- * sions home, _ _ and|call _ my ro- * * * * ving|
w: My God, that he- ri-|tage is thine: How|rich, _ how _ glo- * * * * rious,|how _ di- vine, _ _ how|rich, _ how glo- * * * * rious,|
 c2 B2 !fermata!A3 |: B | d2 B2 B2 B2 | e2 d2 c2 z2 | z2 z!p! F (B/c/d/e/ f)e | dBAF B2 z!f! c | %11
w: known no more?|A-|way, ye mists of|en- vious night,|That veil _ _ _ _ sal-|va- tion from my sight, that|
w: pas- sions home;|To|mine en- ligh- ten’d|eyes dis- play|The he- * * * * ri-|tage of heav’n- ly day, the|
w: how di- vine!|How|far a- bove all|mor- tal things,|The lit- * * * * tle|pride of courts and kings, the|
 d2 B2 B2 (ce) | d2 c2 !fermata!B3 :| %13
w: veil sal- va- tion _|from my sight!|
w: he- ri- tage of _|heav’n- ly day.|
w: lit- tle pride of _|courts and kings.|
V:4
 B,,2"^6" D,F, B,2"^6" D,2 |"^65" E,2"^64""^53" F,2 B,,2 z B,, | F,2"^65" =E,2 F,3 B,, | %3
w: Of end- less joy th’un-|boun- ded store, Why|is its lus- tre|
w: Come, thou ce- les- tial|Spi- rit, come, And|call my ro- ving|
w: My God, that he- ri-|tage is thine: How|rich, how glo- rious,|
"^64" C,2"^7§" C,2 F,3 B,, |"^83""^72" B,,2"^§" C,2 F,3"^6" B,, |"^64" C,2"^7§" C,2 !fermata!F,3 |: %6
w: known no more, why|is its lus- tre|known no more?|
w: pas- sions home, and|call my ro- ving|pas- sions home;|
w: how di- vine, how|rich, how glo- rious,|how di- vine!|
 B,, | B,,2"^6" D,2 E,2 B,2 |"^65" A,2 B,2 F,2 z2 | %9
w: A-|way, ye mists of|en- vious night,|
w: To|mine en- ligh- ten’d|eyes dis- play|
w: How|far a- bove all|mor- tal things,|
"^Notes:The order of staves in the source is Tenor - [Alto] - Air - [Bass], with the alto part printed in the treble clefan octave above sounding pitch.Only the first verse of text is given in the source: subsequent verseshave here been added editorially.The passage given here in small notes in bars 9-10 is printed in the source on the bass vocal staff, usingthe tenor clef." z2 z"^["!p!"^]""^Org." F, B,/C/D/E/"^64" F"^42"E | %10
w: |
w: |
w: |
"^6" DB,"^6"A,F, B,2 z"^["!f!"^]""^6" A, | B,2 B,,2 E,2"^6" E,2 | %12
w: * * * * * That|veil sal- va- tion|
w: * * * * * The|he- ri- tage of|
w: * * * * * The|lit- tle pride of|
"^64" F,2"^75" F,2 !fermata!B,,3 :| %13
w: from my sight!|
w: heav’n- ly day.|
w: courts and kings.|

